X: 6
T: The Guns Of The Magnificent Seven
R: reel
M: 4/4
L: 1/8
K: Ador
|: EAAG ABcA | EAFA GFED | EAAG ABcd | (3efg dB BAA2 :|
|:ABcd eAA2 | gedc BAGB | ABcd eaaf | gedB BAA2 :|
|: egdB A2 | egdB GA (3Bcd | eBdB Aa2g | (3efg dB BAA2 :|